X:1
T:Title
%%score ( 1 2 3 ) 4
L:1/8
Q:1/4=109
M:2/4
K:Bb
V:1 treble nm="Grand Piano, Soprano"
V:2 treble 
V:3 treble 
V:4 bass nm="Choir Pad, Raleigh (Gilbert), 88.88.88"
V:1
 [DF]2 [DF]2- | [DF][DF] [EG]2 | z2 B2- | B z z2 | [DA]2 [DB]2- | [DB][DA] [DG]2 | F2 [Fc]2 | %7
w: By~Walter~Bond~Gilbert *|||||||
 =E2 [CF]2 | [DF]2 [DF]2- | [DF][DF] [EG]2 | z2 B2- | B z z2 | [DA]2 [DB]2- | [DB][DA] [DG]2 | %14
w: |||||||
 F2 [Ec]2 | =E2 [CF]2 | [DF]2 [EG]2 | [EA]2 [DB]2 | z4 | c2 z2 | [EB]2 [Ge]2- | [Ge][Gd] [Gc]2 | %22
w: ||||||||
 [GB]2 [EG]2 | [EA]2 [DB]2- | [DB]4- | [DB]2 z2 |] %26
w: ||||
V:2
 x4 | x4 | [EA]2 D2 | z B [FA]2 | x4 | x4 | x4 | x4 | x4 | x4 | [EA]2 D2 | z B [FA]2 | x4 | x4 | %14
 x4 | x4 | x4 | x4 | [Gc]2 d2 | z E [DB]2 | x4 | x4 | x4 | x4 | x4 | x4 |] %26
V:3
 x4 | x4 | x4 | =E2 z2 | x4 | x4 | x4 | x4 | x4 | x4 | x4 | =E2 z2 | x4 | x4 | x4 | x4 | x4 | x4 | %18
 z2 F2- | F z z2 | x4 | x4 | x4 | x4 | x4 | x4 |] %26
V:4
 [B,,B,]2 [B,,B,]2- | [B,,B,][B,,B,] [E,G,]2 | [F,C]2 [G,B,]2 | [C,G,]2 F,2 | [D,F,]2 [G,,G,]2- | %5
 [G,,G,][A,,^F,] [B,,G,]2 | [D,A,]2 [C,A,]2 | [C,G,]2 [F,A,]2 | [B,,B,]2 [B,,B,]2- | %9
 [B,,B,][B,,B,] [E,G,]2 | [F,C]2 [G,B,]2 | [C,G,]2 F,2 | [D,F,]2 [G,,G,]2- | %13
 [G,,G,][A,,^F,] [B,,G,]2 | [D,A,]2 [C,A,]2 | [C,G,]2 [F,A,]2 | [B,,B,]2 [E,B,]2 | [C,C]2 [G,B,]2 | %18
 [E,B,]2 [F,B,]2 | [F,A,]2 [G,B,]2 | [E,G,]2 [C,C]2- | [C,C][D,=B,] [E,C]2 | [E,C]2 [E,C]2 | %23
 [F,C]2 [B,,B,]2- | [B,,B,]4- | [B,,B,]2 z2 |] %26

